img/icons/svg/icon__briefcase.svg

<svg width="18" height="18" viewBox="0 0 18 18" fill="none" xmlns="http://www.w3.org/2000/svg">
<g clip-path="url(#clip0)">
<path d="M16.2045 4.08412H12.3278V2.522C12.3278 1.77819 11.7227 1.1731 10.9789 1.1731H7.02084C6.27703 1.1731 5.6719 1.77819 5.6719 2.522V4.08412H1.79519C0.807629 4.08412 0.00415926 4.88759 0.00415926 5.87516C0.00415926 6.77221 -0.0877097 7.57782 0.592078 8.4838C0.976692 8.99638 1.50523 9.36204 2.12054 9.54117L8.09556 11.2808C8.68708 11.453 9.31245 11.4531 9.90409 11.2808L15.8791 9.54117C16.4944 9.362 17.023 8.99638 17.4076 8.4838C18.0904 7.57375 17.9955 6.75986 17.9955 5.87516C17.9955 4.88759 17.1921 4.08412 16.2045 4.08412ZM6.81446 2.522C6.81446 2.4082 6.90704 2.31566 7.02084 2.31566H10.9789C11.0927 2.31566 11.1853 2.40824 11.1853 2.522V4.08412H6.81446V2.522Z" fill="black"/>
<path d="M16.1988 10.6382C9.75397 12.5147 9.83741 12.5526 9.00006 12.5526C8.1687 12.5526 8.36594 12.5495 1.80139 10.6382C1.10925 10.4367 0.496267 10.0652 0.00439453 9.5531V15.0358C0.00439453 16.0234 0.807828 16.8268 1.79543 16.8268H16.2047C17.1923 16.8268 17.9958 16.0234 17.9958 15.0358V9.5531C17.5038 10.0652 16.8909 10.4367 16.1988 10.6382Z" fill="black"/>
</g>
<defs>
<clipPath id="clip0">
<rect width="18" height="18" fill="white"/>
</clipPath>
</defs>
</svg>

<svg width="18" height="18" viewBox="0 0 18 18" fill="none" xmlns="http://www.w3.org/2000/svg"><g clip-path="url(#clip0)" fill="#000"><path d="M16.204 4.084h-3.876V2.522a1.35 1.35 0 00-1.35-1.349H7.022a1.35 1.35 0 00-1.35 1.349v1.562H1.796c-.987 0-1.79.804-1.79 1.791 0 .897-.093 1.703.587 2.609.385.512.913.878 1.529 1.057l5.975 1.74a3.23 3.23 0 001.808 0l5.975-1.74a2.916 2.916 0 001.529-1.057c.682-.91.587-1.724.587-2.609 0-.987-.803-1.79-1.79-1.79zm-9.39-1.562c0-.114.093-.206.207-.206h3.958c.114 0 .206.092.206.206v1.562h-4.37V2.522z"/><path d="M16.199 10.638C9.754 12.515 9.837 12.553 9 12.553c-.831 0-.634-.004-7.199-1.915A4.046 4.046 0 01.004 9.553v5.483c0 .987.804 1.79 1.791 1.79h14.41c.987 0 1.79-.803 1.79-1.79V9.553a4.046 4.046 0 01-1.796 1.085z"/></g><defs><clipPath id="clip0"><path fill="#fff" d="M0 0h18v18H0z"/></clipPath></defs></svg>
